X: 298
T:Pachelbel's frolics
M:4/4
L:1/8
Q:140
S:John Wynne
Z:Andrew Pickering
K:C
GAB|c2 cB cdef|g2 ga gedB|A2 AB c2 cA|G2 GA GEcE|
F2 FG A2 AB|c2 cd (3efg ag|fedc BG (3Bcd|eccB c:||
g^fg|egcg egcg|dgBg dgBg|ceAe ceAe|GBEB GBEB|
F2 FGA2 AB|c2 cd (3efg ag|fedc BG (3Bcd|eccB c:||

